X:62
T:French Quadrille
O:No 62 Wm Clarke of Feltwell  MS 1858
N:Bar 4:  run of 4 notes drawn as quavers in MS
N:Bars 18-26: dotted crochets assumed.
I:abc2nwc
M:2/4
L:1/16
K:C
(3GAB|c2c2 B2G2|c2c2 d2d2|e2e2 f2f2|g3a"^*"gfed|
c2c2 B2G2|c2c2 d2d2|e2g2 f2e2|e4d2:|
|:z2|G2g2 g2ec|G2f2 f2d2|e2e2 d2d2|cdef gabc'|
G2g2 g2ec|G2f2 f2d2|e2e2 d2d2|cege c2:|
|:"^*"z2|e6"^*"f2|g2a2 b2c'2|"^*"d6e2|f2g2 a2f2|
"^*"e6f2|g2a2 b2c'2|g2g2 f2e2|e4d2:|
|:"^*"z2|G2g2 gege|G2f2 f2d2|e2e2 d2d2|cdef gaba|
G2g2 gege|G2f2 f2d2|e2e2 d2d2|cege c2:|

